static/transferProgress/completed_disable.svg

<?xml version="1.0" encoding="UTF-8"?>
<svg width="40px" height="40px" viewBox="0 0 40 40" version="1.1" xmlns="http://www.w3.org/2000/svg" xmlns:xlink="http://www.w3.org/1999/xlink">
    <title>8CDBB53D-F3C0-4906-8D3F-924BF8B7137F</title>
    <g id="🕹-Component" stroke="none" stroke-width="1" fill="none" fill-rule="evenodd">
        <g id="Component_04" transform="translate(-1009.000000, -291.000000)">
            <g id="Step/Completed-(Failed)" transform="translate(987.000000, 291.000000)">
                <g id="Icon/Completed-(Filled)" transform="translate(22.000000, 0.000000)">
                    <path d="M20,3.33333333 C10.7952542,3.33333333 3.33333333,10.7952542 3.33333333,20 C3.33333333,29.2047458 10.7952542,36.6666667 20,36.6666667 C29.2047458,36.6666667 36.6666667,29.2047458 36.6666667,20 C36.6666667,10.7952542 29.2047458,3.33333333 20,3.33333333 Z" id="Oval" fill="#DEDDDE"></path>
                    <path d="M25.8895733,14.7206696 C26.2350339,14.3542348 26.7971581,14.3521055 27.1451129,14.7159137 C27.4663018,15.0517366 27.4927315,15.5819771 27.2231829,15.9497764 L27.1496289,16.0381354 L18.4373858,25.2793303 C18.1206291,25.6153184 17.6211982,25.6453285 17.2718493,25.3664433 L17.1878314,25.290285 L12.8608727,20.8509466 C12.509667,20.4906194 12.5023302,19.8986872 12.8444853,19.5288289 C13.1603208,19.1874212 13.6635479,19.1545755 14.0153313,19.4349495 L14.099926,19.5115712 L17.7962384,23.3041067 L25.8895733,14.7206696 Z" id="Path-25" fill="#FFFFFF"></path>
                </g>
            </g>
        </g>
    </g>
</svg>

<svg xmlns="http://www.w3.org/2000/svg" width="41" height="40" viewBox="0 0 41 40">
    <g fill="none" fill-rule="evenodd">
        <g>
            <g>
                <g>
                    <g>
                        <g>
                            <path fill="#E5E5E5" d="M20 3.333C10.795 3.333 3.333 10.795 3.333 20c0 9.205 7.462 16.667 16.667 16.667 9.205 0 16.667-7.462 16.667-16.667 0-9.205-7.462-16.667-16.667-16.667z" transform="translate(-318 -634) translate(263 290) translate(24 344) translate(31.108)"/>
                            <path fill="#FFF" d="M25.89 14.72c.345-.366.907-.368 1.255-.004.321.336.348.866.078 1.234l-.073.088-8.713 9.241c-.316.336-.816.366-1.165.087l-.084-.076-4.327-4.44c-.351-.36-.359-.951-.017-1.321.316-.342.82-.374 1.171-.094l.085.077 3.696 3.792 8.094-8.583z" transform="translate(-318 -634) translate(263 290) translate(24 344) translate(31.108)"/>
                        </g>
                    </g>
                </g>
            </g>
        </g>
    </g>
</svg>
